packages/sources/icons/src/vitamix/settings-fill.svg

<svg width="16" height="16" viewBox="0 0 16 16" fill="none" xmlns="http://www.w3.org/2000/svg">
<path fill-rule="evenodd" clip-rule="evenodd" d="M9.36332 1.47198C8.46385 1.28428 7.53527 1.28474 6.63599 1.47331V1.47398C6.51438 2.27459 6.03495 2.97631 5.33332 3.38065C4.63184 3.7863 3.78377 3.85035 3.02932 3.55465C2.4174 4.24005 1.9531 5.04406 1.66532 5.91665C2.29873 6.42224 2.66732 7.18886 2.66665 7.99931C2.66724 8.80908 2.2992 9.57508 1.66665 10.0806C1.95266 10.9542 2.41639 11.7591 3.02865 12.4446C3.7832 12.1485 4.63155 12.2123 5.33332 12.618C6.03604 13.0229 6.51585 13.726 6.63665 14.528C7.53622 14.7152 8.4648 14.7143 9.36399 14.5253C9.4856 13.7247 9.96503 13.023 10.6667 12.6186C11.3681 12.213 12.2162 12.1489 12.9707 12.4446C13.5826 11.7592 14.0469 10.9552 14.3347 10.0826C13.724 9.59398 13.3333 8.84265 13.3333 7.99998C13.3323 7.18975 13.7004 6.42318 14.3333 5.91731C14.0472 5.04401 13.5835 4.23935 12.9713 3.55398C12.2167 3.8499 11.3683 3.78585 10.6667 3.37998C9.96444 2.97552 9.4847 2.27321 9.36332 1.47198ZM10 7.99997C10 9.10454 9.10457 9.99997 8 9.99997C6.89543 9.99997 6 9.10454 6 7.99997C6 6.8954 6.89543 5.99997 8 5.99997C9.10457 5.99997 10 6.8954 10 7.99997Z" fill="#001018"/>
</svg>

<svg width="16" height="16" fill="none" xmlns="http://www.w3.org/2000/svg"><path fill-rule="evenodd" clip-rule="evenodd" d="M9.363 1.472a6.66 6.66 0 0 0-2.727.001v.001a2.662 2.662 0 0 1-1.303 1.907c-.701.405-1.55.47-2.304.174a6.695 6.695 0 0 0-1.364 2.362 2.662 2.662 0 0 1 1.002 2.082c0 .81-.368 1.576-1 2.082a6.66 6.66 0 0 0 1.362 2.364 2.662 2.662 0 0 1 2.304.173 2.662 2.662 0 0 1 1.304 1.91c.9.187 1.828.186 2.727-.003.122-.8.601-1.502 1.303-1.906a2.662 2.662 0 0 1 2.304-.174 6.696 6.696 0 0 0 1.364-2.362A2.66 2.66 0 0 1 13.333 8a2.662 2.662 0 0 1 1-2.083 6.66 6.66 0 0 0-1.362-2.363 2.662 2.662 0 0 1-2.304-.174 2.662 2.662 0 0 1-1.304-1.908zM10 8a2 2 0 1 1-4 0 2 2 0 0 1 4 0z" fill="#001018"/></svg>
